X:24
T:P/M Angus MacDonald's Unknown Jig
R:Jig
M:6/8
K:HP
|:{g}Ad{c}d {g}fd{c}d | {g}fge {g}fd{c}d | {g}Ad{c}d {g}def | ge{A}e {g}edB |!
  {g}Ad{c}d {g}fd{c}d | {g}fge {g}fd{c}d | {g}fa{g}a gec | {g}ed{c}d {g}d3 :|!
|:aA{d}A {g}fd{c}d | gA{d}A {g}ec{G}c | aA{d}A {g}def | ge{A}e {g}efg |!
  aA{d}A {g}fd{c}d | gA{d}A {g}ec{G}c | {g}fa{g}a gec | {g}ed{c}d {g}d3 :|!
  
